images/icons/goodreads.svg

<svg fill="none" height="24" viewBox="0 0 24 24" width="24" xmlns="http://www.w3.org/2000/svg" xmlns:xlink="http://www.w3.org/1999/xlink"><clipPath id="a"><path d="m0 0h24v24h-24z"/></clipPath><g clip-path="url(#a)"><path d="m16.066 8.529c.273 1.998-.252 4.232-1.923 5.394-1.195.831-2.829.756-3.793.306-1.987-.927-2.652-3.14-2.507-5.208.23-3.262 2.191-4.709 4.034-4.687 2.512-.011 3.846 1.703 4.189 4.195zm7.934-5.529v18c0 1.655-1.345 3-3 3h-18c-1.655 0-3-1.345-3-3v-18c0-1.655 1.345-3 3-3h18c1.655 0 3 1.345 3 3zm-6.321 12.064s-.006-1.821-.006-11.641h-1.553v2.159c-.043.016-.065-.027-.086-.064-.514-1.109-1.923-2.481-4.071-2.464-2.781.021-4.672 1.671-5.39 4.167-.23.799-.31 1.613-.294 2.443.091 4.173 2.416 6.311 6.021 6.172 1.548-.059 2.92-.911 3.696-2.422.027-.053.059-.101.091-.155.011.005.022.005.033.011.016.203.01 1.644.005 1.848-.011.793-.107 1.58-.386 2.33-.418 1.125-1.194 1.859-2.384 2.116-.953.209-1.907.204-2.85-.064-1.151-.327-1.955-1.018-2.201-2.239-.017-.086-.07-.07-.124-.07h-1.435c.042.568.171 1.088.455 1.564 1.296 2.17 4.43 2.599 6.868 2.004 2.673-.659 3.605-2.941 3.611-5.695z" fill="#e8e4ca"/><path clip-rule="evenodd" d="m16.088 8.50004c.274 1.99896-.251 4.23296-1.923 5.39496-1.194.83-2.828.755-3.793.305-1.98696-.926-2.65096-3.139-2.50696-5.20696.231-3.262 2.19096-4.709 4.03396-4.687 2.513-.011 3.847 1.703 4.189 4.194zm1.613 6.53596s-.005-1.821-.005-11.64096h-1.554v2.159c-.043.016-.064-.027-.086-.064-.514-1.109-1.923-2.481-4.071-2.465-2.77996.022-4.67196 1.672-5.38896 4.168-.231.799-.311 1.613-.295 2.443.091 4.17296 2.416 6.31096 6.02096 6.17196 1.549-.059 2.92-.911 3.697-2.422.027-.053.059-.102.091-.155.011.005.021.005.032.011.016.203.011 1.644.005 1.848-.01.793-.107 1.58-.385 2.33-.418 1.125-1.195 1.859-2.384 2.116-.954.209-1.907.204-2.85-.064-1.15196-.327-1.95596-1.018-2.20196-2.239-.016-.086-.07-.07-.123-.07h-1.436c.043.568.171 1.087.455 1.564 1.297 2.17 4.43096 2.598 6.86796 2.004 2.673-.659 3.606-2.941 3.611-5.695z" fill="#553b08" fill-rule="evenodd"/></g></svg>

<?xml version="1.0" encoding="UTF-8" standalone="no"?><!-- Generator: Gravit.io --><svg xmlns="http://www.w3.org/2000/svg" xmlns:xlink="http://www.w3.org/1999/xlink" style="isolation:isolate" viewBox="0 0 24 24" width="24pt" height="24pt"><path d=" M 16.066 8.529 C 16.339 10.527 15.814 12.761 14.143 13.923 C 12.948 14.754 11.314 14.679 10.35 14.229 C 8.363 13.302 7.698 11.089 7.843 9.021 C 8.073 5.759 10.034 4.312 11.877 4.334 C 14.389 4.323 15.723 6.037 16.066 8.529 Z  M 24 3 L 24 21 C 24 22.655 22.655 24 21 24 L 3 24 C 1.345 24 0 22.655 0 21 L 0 3 C 0 1.345 1.345 0 3 0 L 21 0 C 22.655 0 24 1.345 24 3 Z  M 17.679 15.064 C 17.679 15.064 17.673 13.243 17.673 3.423 L 16.12 3.423 L 16.12 5.582 C 16.077 5.598 16.055 5.555 16.034 5.518 C 15.52 4.409 14.111 3.037 11.963 3.054 C 9.182 3.075 7.291 4.725 6.573 7.221 C 6.343 8.02 6.263 8.834 6.279 9.664 C 6.37 13.837 8.695 15.975 12.3 15.836 C 13.848 15.777 15.22 14.925 15.996 13.414 C 16.023 13.361 16.055 13.313 16.087 13.259 C 16.098 13.264 16.109 13.264 16.12 13.27 C 16.136 13.473 16.13 14.914 16.125 15.118 C 16.114 15.911 16.018 16.698 15.739 17.448 C 15.321 18.573 14.545 19.307 13.355 19.564 C 12.402 19.773 11.448 19.768 10.505 19.5 C 9.354 19.173 8.55 18.482 8.304 17.261 C 8.287 17.175 8.234 17.191 8.18 17.191 L 6.745 17.191 C 6.787 17.759 6.916 18.279 7.2 18.755 C 8.496 20.925 11.63 21.354 14.068 20.759 C 16.741 20.1 17.673 17.818 17.679 15.064 Z " fill="rgb(232,228,202)"/><path d=" M 16.088 8.5 C 16.362 10.499 15.837 12.733 14.165 13.895 C 12.971 14.725 11.337 14.65 10.372 14.2 C 8.385 13.274 7.721 11.061 7.865 8.993 C 8.096 5.731 10.056 4.284 11.899 4.306 C 14.412 4.295 15.746 6.009 16.088 8.5 L 16.088 8.5 Z  M 17.701 15.036 C 17.701 15.036 17.696 13.215 17.696 3.395 L 16.142 3.395 L 16.142 5.554 C 16.099 5.57 16.078 5.527 16.056 5.49 C 15.542 4.381 14.133 3.009 11.985 3.025 C 9.205 3.047 7.313 4.697 6.596 7.193 C 6.365 7.992 6.285 8.806 6.301 9.636 C 6.392 13.809 8.717 15.947 12.322 15.808 C 13.871 15.749 15.242 14.897 16.019 13.386 C 16.046 13.333 16.078 13.284 16.11 13.231 C 16.121 13.236 16.131 13.236 16.142 13.242 C 16.158 13.445 16.153 14.886 16.147 15.09 C 16.137 15.883 16.04 16.67 15.762 17.42 C 15.344 18.545 14.567 19.279 13.378 19.536 C 12.424 19.745 11.471 19.74 10.528 19.472 C 9.376 19.145 8.572 18.454 8.326 17.233 C 8.31 17.147 8.256 17.163 8.203 17.163 L 6.767 17.163 C 6.81 17.731 6.938 18.25 7.222 18.727 C 8.519 20.897 11.653 21.325 14.09 20.731 C 16.763 20.072 17.696 17.79 17.701 15.036 L 17.701 15.036 Z " fill-rule="evenodd" fill="rgb(85,59,8)"/></svg>
